svg/u1f379.svg

<svg viewBox="0 0 128 128" xmlns="http://www.w3.org/2000/svg">
  <path d="M43.78,28.97c-1.4,1.92-0.2,7.96-1.91,16.82c-1.71,8.86-6.39,16.23-5.74,26.79 c1.31,21.35,22.16,25.28,22.16,25.28v9.06c0,0-13.9,1.61-14,7.55c-0.1,5.94,10.07,8.26,19.34,8.06c9.27-0.2,18.53-2.82,18.63-8.16 c0.11-5.85-14.2-7.75-14.2-7.75s-0.1-2.22-0.1-4.13s0.2-4.63,0.2-4.63s21.08-3.08,21.95-24.98c0.4-10.07-3.93-19.74-4.53-28.3 c-0.6-8.56,0.1-12.49,0.1-15.01s-2.13,3.58-22.33,3.85C45.06,33.67,45.4,26.75,43.78,28.97z" opacity="0.5" fill="#FFFFFF"/>
  <path d="M43.78,28.97c-1.4,1.92-0.2,7.96-1.91,16.82c-1.71,8.86-6.39,16.23-5.74,26.79 c1.31,21.35,22.16,25.28,22.16,25.28v9.06c0,0-13.9,1.61-14,7.55c-0.1,5.94,10.07,8.26,19.34,8.06c9.27-0.2,18.53-2.82,18.63-8.16 c0.11-5.85-14.2-7.75-14.2-7.75s-0.1-2.22-0.1-4.13s0.2-4.63,0.2-4.63s21.08-3.08,21.95-24.98c0.4-10.07-3.93-19.74-4.53-28.3 c-0.6-8.56,0.1-12.49,0.1-15.01s-12.39-3.93-22.16-4.13C53.75,25.24,45.4,26.75,43.78,28.97z" opacity="0.7" fill="#E0E0E0"/>
  <path d="M46.31,29.45c2.48-0.49,8.05-1.37,16.37-1.37c11.58,0,20.52,1.81,20.52,1.81l1.33-2.53 c0,0-4.78-2.85-21.5-2.56c-5.19,0.09-9.09,0.36-11.96,0.67C45.79,26.04,45.34,29.65,46.31,29.45z" fill="#C9C9C9"/>
  <path d="M45.13,42.81c-0.26-0.39-0.54-1.5,0.56-2.21c1.1-0.71,3.5-2.46,16.96-2.4 c13.47,0.06,20.07,1.88,20.07,3.43c0,0.94-1.36,2.4-1.36,2.4l-16.64,3.63L45.13,42.81z" fill="#FFEBC9"/>
  <radialGradient id="SVGID_1_" cx="63.6163" cy="47.0605" gradientTransform="matrix(0.0123 0.9999 -1.6696 0.0206 141.4049 -17.521)" gradientUnits="userSpaceOnUse" r="40.0666">
    <stop offset="0.2618" stop-color="#FFD3A6"/>
    <stop offset="0.3039" stop-color="#FFCF97"/>
    <stop offset="0.3844" stop-color="#FFC471"/>
    <stop offset="0.4938" stop-color="#FFB334"/>
    <stop offset="0.5782" stop-color="#FFA500"/>
    <stop offset="0.6675" stop-color="#FF8702"/>
    <stop offset="0.8167" stop-color="#FF5B05"/>
    <stop offset="0.9325" stop-color="#FF3F06"/>
    <stop offset="1" stop-color="#FF3507"/>
  </radialGradient>
  <path d="M64.46,44.48c7.9-0.09,18.26-2.85,18.26-2.85s1.05,6.97,1.62,10.68 c0.51,3.38,5.45,15.88,2.18,26.91c-1.86,6.26-7.95,15.18-22.37,15.18c-18.88,0-25.74-13-25.87-22.56 c-0.12-8.69,3.66-16.75,4.84-20.52c1.09-3.48,1.78-9.69,1.78-9.69S50.25,44.64,64.46,44.48z" fill="url(#SVGID_1_)"/>
  <path d="M45.02,54.43c-0.9,1.5-1.84,4.43-2.63,7.77c-0.54,2.27-1.11,5.16-1,9.14 c0.09,3.25,0.9,10.1,7.29,9.57c2.15-0.18-0.24-4.24,0.48-14.89c0.66-9.84,3.47-12.11-0.88-12.66 C46.14,53.11,45.55,53.55,45.02,54.43z" fill="#FFFFFF"/>
  <path d="M60.87,98.62c0,0,0.28,11.13,0.38,11.57c0.31,1.34,1.09,2.82,4.63,2.57s1.77-3.62,1.64-3.87 s-0.55-8.38-0.55-8.38l-0.38-2.95L60.87,98.62z" fill="#FFFFFF"/>
  <path d="M58.35,107.87c-0.57-0.12-2.95,3.83-2.95,4.25c0,0.42,2.75,3.1,8.31,3.1s7.86-2.67,7.85-3.18 c-0.01-0.78-2.9-4.92-2.9-4.92l0.13-8.59c0,0-0.63-1.34-1.49-0.85c-0.86,0.49-0.86,1.12-0.86,1.79s-0.08,5.67-0.03,7.15 c0.05,1.48,1.11,4.6-2.65,4.79C59.39,111.64,58.92,107.99,58.35,107.87z" fill="#9F9F9F"/>
  <path d="M59.96,97.1c0.04,0.85,1.18,2.71,3.74,2.76c2.57,0.05,4.16-1.25,4.16-1.25s9.76-0.65,16.82-8.74 c6.53-7.48,7.7-19.37,4.59-30.22c-3.3-11.51-3.33-13.95-3.43-20.1c-0.04-2.37,0.09-7.62,0.05-8.23c-0.07-1.24-1.28-1.6-1.33,1.63 c-0.06,3.53-0.24,5.63-0.05,10.2c0.17,4.05,1.68,11.06,3.1,16.85c2.27,9.28,2.26,21.86-4.43,28.49c-6.88,6.82-13.24,7.83-16.88,8.02 C61.79,96.76,59.9,96.03,59.96,97.1z" fill="#9F9F9F"/>
  <path d="M68.3,41.43c0,0,4.32-7.9,5.81-10.93c3.26-6.57,4.86-10.13,5.76-11.08 c0.9-0.96,19.11-3.77,19.65-3.83c0.54-0.06,0,2.33,0,2.33c0.12,0.48-0.39,2.96-0.39,2.96l-17.02,2.85c0,0-2.32,4.66-3.5,7.02 c-2.57,5.15-5.38,10.34-5.38,10.34L68.3,41.43z" fill="#FF2A23"/>
  <path d="M97.95,18c-0.11,1.23,0.07,2.85,1.04,2.91c1.13,0.07,1.38-1.76,1.49-2.81 c0.1-0.94-0.1-2.51-0.94-2.51S98.08,16.49,97.95,18z" fill="#DB0D25"/>
  <path d="M84.19,23.95c-0.27-0.04-0.49-0.25-0.54-0.54l-0.83-5.05c-0.06-0.35,0.18-0.69,0.54-0.75 c0.35-0.06,0.69,0.18,0.75,0.54l0.83,5.05c0.06,0.35-0.18,0.69-0.54,0.75C84.33,23.96,84.25,23.96,84.19,23.95z" fill="#DB0D25"/>
  <path d="M83.15,24.28c-0.25,0-0.49-0.14-0.59-0.39l-2.08-4.71c-0.14-0.33,0-0.71,0.33-0.86 c0.33-0.15,0.71,0,0.86,0.33l2.08,4.71c0.14,0.33,0,0.71-0.33,0.86C83.33,24.27,83.24,24.28,83.15,24.28z" fill="#DB0D25"/>
  <path d="M81.92,24.62c-0.18,0-0.36-0.07-0.49-0.22l-3.07-3.48c-0.24-0.27-0.21-0.68,0.06-0.92 c0.27-0.24,0.68-0.21,0.92,0.06l3.07,3.48c0.24,0.27,0.21,0.68-0.06,0.92C82.23,24.57,82.07,24.62,81.92,24.62z" fill="#DB0D25"/>
  <path d="M56.59,41.38L26.61,3.16c0,0,0.25-0.94,0.78-1.34c0.53-0.41,1.34-0.41,1.34-0.41l31.18,40.05 L56.59,41.38z" fill="#F8C976"/>
  <path d="M44.93,27.94l2.69,2.69l8.33,2.82l17.22,0.25l10.03-3.8l1.31-2.54c0,0,1.86,0.71,1.78,2.76 c-0.07,1.63-0.65,3.46-4.91,4.96c-4.26,1.5-9.14,2.38-17.35,2.44s-18.6-1.19-20.66-5.2C42.02,29.71,44.93,27.94,44.93,27.94z" fill="#C9C9C9"/>
  <path d="M44.19,29.61c-0.23,0.96,2.55,3.47,10.35,4.79c8.62,1.46,18.68,0.03,22.43-0.64 c5.61-1,7.43-2.69,7.16-3.74c-0.35-1.34-1.55-0.46-2.46-0.09c-0.91,0.36-9.57,2.64-18.55,2.37c-8.98-0.27-12.26-1.14-13.95-1.96 C47.48,29.52,44.67,27.61,44.19,29.61z" fill="#F9FBFA"/>
  <path d="M58.81,97.22c0.09-1.02-2.29-1.31-5.87-2.92C49.36,92.69,40.77,88.66,38,78.55 c-2.68-9.76-0.08-16.29,3.49-26.57c1.52-4.38,2.59-11.01,2.68-14.5c0.09-3.49,0.27-4.78-0.8-5.16c-1.07-0.38-0.81,1.05-0.81,4.89 s-1.24,9.57-2.68,13.69c-3.58,10.2-7.21,17.99-3.6,29.24c2.26,7.04,6.22,11.55,15.23,15.86C55.62,97.97,58.68,98.69,58.81,97.22z" fill="#D5D5D5"/>
  <path d="M47.35,112.8c-1.25,0.22-1.55,2,1.49,3.89s10.14,2.69,10.48,1.6s-4.29-1.6-7.9-3.38 C49.02,113.74,48.66,112.57,47.35,112.8z" fill="#FFFFFF"/>
  <path d="M68.39,118.75c0.47,0.8,8.7,0.23,10.77-2.35c2.06-2.58,0.52-4.75-1.89-4.58 c-1.9,0.14,0.74,1.49-1.55,3.21C73.43,116.74,67.58,117.37,68.39,118.75z" fill="#FFFFFF"/>
  <path d="M44.74,112.85c-0.63,0.05-2,2.63-0.8,5.04c0.72,1.45,2.14,2.43,4.12,3.44 c2.93,1.49,7.57,2.78,14.96,2.72c5.51-0.04,9.33-0.71,12.12-1.52c5.55-1.6,6.88-4.68,7.16-5.56c0.39-1.23,0.27-3.1-0.05-3.15 c-0.35-0.05-0.8,1.68-1.5,2.58c-1.34,1.71-3.42,2.95-6.32,3.63c-2.93,0.69-5.75,1.32-11.72,1.18c-12.31-0.29-15.63-3.38-16.89-5.1 C44.41,114.19,45.48,112.79,44.74,112.85z" fill="#9F9F9F"/>
  <path d="M36.43,13.16c-2.56,1.99-6.04,6.49-5.06,14.53c0.71,5.86,4.6,10.38,4.89,10.32 c0.29-0.06,23.76-19.95,23.7-20.35s-2.74-5.65-9.44-7.48S38.49,11.55,36.43,13.16z" fill="#FF8E00"/>
  <path d="M48.65,23.9l7.88-6.51c0,0-2.81-3.55-7.1-4.52L48.65,23.9z" fill="#FFA500"/>
  <path d="M34.12,26.35c0.4,4.32,2.48,7.7,2.48,7.7l8.28-6.97L34.12,26.35z" fill="#FFA500"/>
  <g>
    <path d="M46.47,23.32l0.99-10.72c-2.44-0.38-5.41-0.02-8.05,1.9L46.47,23.32z" fill="#FFA500"/>
    <path d="M37.77,16.28c-2.18,2.22-3.27,4.58-3.52,7.5l10.62,1.31L37.77,16.28z" fill="#FFA500"/>
  </g>
  <path d="M30.17,7.75c0,0,1.04,1.19,2.12,0.15c0.9-0.86,0.09-1.8,0.09-1.8s3.41-1.13,5.47,1.22 c2.06,2.35,2,5.78-0.52,7.56c-2.43,1.72-5.76,1.57-7.56-1.43C28,10.45,30.17,7.75,30.17,7.75z" fill="#DC0D27"/>
</svg>

<svg viewBox="0 0 128 128" xmlns="http://www.w3.org/2000/svg">
  <defs>
    <radialGradient id="SVGID_1_" cx="47.84081" cy="-37.749597" gradientTransform="matrix(0.0123 0.9999 -1.6696 0.0206 0 0)" gradientUnits="userSpaceOnUse" r="40.0666">
      <stop offset="0.2618" stop-color="#FFD3A6"/>
      <stop offset="0.3039" stop-color="#FFCF97"/>
      <stop offset="0.3844" stop-color="#FFC471"/>
      <stop offset="0.4938" stop-color="#FFB334"/>
      <stop offset="0.5782" stop-color="#FFA500"/>
      <stop offset="0.6675" stop-color="#FF8702"/>
      <stop offset="0.8167" stop-color="#FF5B05"/>
      <stop offset="0.9325" stop-color="#FF3F06"/>
      <stop offset="1" stop-color="#FF3507"/>
    </radialGradient>
  </defs>
  <path d="M43.78,28.97 C42.38,30.89 43.58,36.93 41.87,45.79 C40.16,54.65 35.48,62.02 36.13,72.58 C37.44,93.93 58.29,97.86 58.29,97.86 L58.29,106.92 C58.29,106.92 44.39,108.53 44.29,114.47 C44.19,120.41 54.36,122.73 63.63,122.53 C72.9,122.33 82.16,119.71 82.26,114.37 C82.37,108.52 68.06,106.62 68.06,106.62 C68.06,106.62 67.96,104.4 67.96,102.49 C67.96,100.58 68.16,97.86 68.16,97.86 C68.16,97.86 89.24,94.78 90.11,72.88 C90.51,62.81 86.18,53.14 85.58,44.58 C84.98,36.02 85.68,32.09 85.68,29.57 C85.68,27.05 83.55,33.15 63.35,33.42 C45.06,33.67 45.4,26.75 43.78,28.97 Z" fill="#FFFFFF" opacity="0.5"/>
  <path d="M43.78,28.97 C42.38,30.89 43.58,36.93 41.87,45.79 C40.16,54.65 35.48,62.02 36.13,72.58 C37.44,93.93 58.29,97.86 58.29,97.86 L58.29,106.92 C58.29,106.92 44.39,108.53 44.29,114.47 C44.19,120.41 54.36,122.73 63.63,122.53 C72.9,122.33 82.16,119.71 82.26,114.37 C82.37,108.52 68.06,106.62 68.06,106.62 C68.06,106.62 67.96,104.4 67.96,102.49 C67.96,100.58 68.16,97.86 68.16,97.86 C68.16,97.86 89.24,94.78 90.11,72.88 C90.51,62.81 86.18,53.14 85.58,44.58 C84.98,36.02 85.68,32.09 85.68,29.57 C85.68,27.05 73.29,25.64 63.52,25.44 C53.75,25.24 45.4,26.75 43.78,28.97 Z" fill="#E0E0E0" opacity="0.7"/>
  <path d="M46.31,29.45 C48.79,28.96 54.36,28.08 62.68,28.08 C74.26,28.08 83.2,29.89 83.2,29.89 L84.53,27.36 C84.53,27.36 79.75,24.51 63.03,24.8 C57.84,24.89 53.94,25.16 51.07,25.47 C45.79,26.04 45.34,29.65 46.31,29.45 Z" fill="#C9C9C9"/>
  <path d="M45.13,42.81 C44.87,42.42 44.59,41.31 45.69,40.6 C46.79,39.89 49.19,38.14 62.65,38.2 C76.12,38.26 82.72,40.08 82.72,41.63 C82.72,42.57 81.36,44.03 81.36,44.03 L64.72,47.66 L45.13,42.81 Z" fill="#FFEBC9"/>
  <path d="M64.46,44.48 C72.36,44.39 82.72,41.63 82.72,41.63 C82.72,41.63 83.77,48.6 84.34,52.31 C84.85,55.69 89.79,68.19 86.52,79.22 C84.66,85.48 78.57,94.4 64.15,94.4 C45.27,94.4 38.41,81.4 38.28,71.84 C38.16,63.15 41.94,55.09 43.12,51.32 C44.21,47.84 44.9,41.63 44.9,41.63 C44.9,41.63 50.25,44.64 64.46,44.48 Z" fill="url(#SVGID_1_)"/>
  <path d="M45.02,54.43 C44.12,55.93 43.18,58.86 42.39,62.2 C41.85,64.47 41.28,67.36 41.39,71.34 C41.48,74.59 42.29,81.44 48.68,80.91 C50.83,80.73 48.44,76.67 49.16,66.02 C49.82,56.18 52.63,53.91 48.28,53.36 C46.14,53.11 45.55,53.55 45.02,54.43 Z" fill="#FFFFFF"/>
  <path d="M60.87,98.62 C60.87,98.62 61.15,109.75 61.25,110.19 C61.56,111.53 62.34,113.01 65.88,112.76 C69.42,112.51 67.65,109.14 67.52,108.89 C67.39,108.64 66.97,100.51 66.97,100.51 L66.59,97.56 L60.87,98.62 Z" fill="#FFFFFF"/>
  <path d="M58.35,107.87 C57.78,107.75 55.4,111.7 55.4,112.12 C55.4,112.54 58.15,115.22 63.71,115.22 C69.27,115.22 71.57,112.55 71.56,112.04 C71.55,111.26 68.66,107.12 68.66,107.12 L68.79,98.53 C68.79,98.53 68.16,97.19 67.3,97.68 C66.44,98.17 66.44,98.8 66.44,99.47 C66.44,100.14 66.36,105.14 66.41,106.62 C66.46,108.1 67.52,111.22 63.76,111.41 C59.39,111.64 58.92,107.99 58.35,107.87 Z" fill="#9F9F9F"/>
  <path d="M59.96,97.1 C60,97.95 61.14,99.81 63.7,99.86 C66.27,99.91 67.86,98.61 67.86,98.61 C67.86,98.61 77.62,97.96 84.68,89.87 C91.21,82.39 92.38,70.5 89.27,59.65 C85.97,48.14 85.94,45.7 85.84,39.55 C85.8,37.18 85.93,31.93 85.89,31.32 C85.82,30.08 84.61,29.72 84.56,32.95 C84.5,36.48 84.32,38.58 84.51,43.15 C84.68,47.2 86.19,54.21 87.61,60 C89.88,69.28 89.87,81.86 83.18,88.49 C76.3,95.31 69.94,96.32 66.3,96.51 C61.79,96.76 59.9,96.03 59.96,97.1 Z" fill="#9F9F9F"/>
  <path d="M68.3,41.43 C68.3,41.43 72.62,33.53 74.11,30.5 C77.37,23.93 78.97,20.37 79.87,19.42 C80.77,18.46 98.98,15.65 99.52,15.59 C100.06,15.53 99.52,17.92 99.52,17.92 C99.64,18.4 99.13,20.88 99.13,20.88 L82.11,23.73 C82.11,23.73 79.79,28.39 78.61,30.75 C76.04,35.9 73.23,41.09 73.23,41.09 L68.3,41.43 Z" fill="#FF2A23"/>
  <path d="M97.95,18 C97.84,19.23 98.02,20.85 98.99,20.91 C100.12,20.98 100.37,19.15 100.48,18.1 C100.58,17.16 100.38,15.59 99.54,15.59 C98.7,15.59 98.08,16.49 97.95,18 Z" fill="#DB0D25"/>
  <path d="M84.19,23.95 C83.92,23.91 83.7,23.7 83.65,23.41 L82.82,18.36 C82.76,18.01 83,17.67 83.36,17.61 C83.71,17.55 84.05,17.79 84.11,18.15 L84.94,23.2 C85,23.55 84.76,23.89 84.4,23.95 C84.33,23.96 84.25,23.96 84.19,23.95 Z" fill="#DB0D25"/>
  <path d="M83.15,24.28 C82.9,24.28 82.66,24.14 82.56,23.89 L80.48,19.18 C80.34,18.85 80.48,18.47 80.81,18.32 C81.14,18.17 81.52,18.32 81.67,18.65 L83.75,23.36 C83.89,23.69 83.75,24.07 83.42,24.22 C83.33,24.27 83.24,24.28 83.15,24.28 Z" fill="#DB0D25"/>
  <path d="M81.92,24.62 C81.74,24.62 81.56,24.55 81.43,24.4 L78.36,20.92 C78.12,20.65 78.15,20.24 78.42,20 C78.69,19.76 79.1,19.79 79.34,20.06 L82.41,23.54 C82.65,23.81 82.62,24.22 82.35,24.46 C82.23,24.57 82.07,24.62 81.92,24.62 Z" fill="#DB0D25"/>
  <path d="M56.59,41.38 L26.61,3.16 C26.61,3.16 26.86,2.22 27.39,1.82 C27.92,1.41 28.73,1.41 28.73,1.41 L59.91,41.46 L56.59,41.38 Z" fill="#F8C976"/>
  <path d="M44.93,27.94 L47.62,30.63 L55.95,33.45 L73.17,33.7 L83.2,29.9 L84.51,27.36 C84.51,27.36 86.37,28.07 86.29,30.12 C86.22,31.75 85.64,33.58 81.38,35.08 C77.12,36.58 72.24,37.46 64.03,37.52 C55.82,37.58 45.43,36.33 43.37,32.32 C42.02,29.71 44.93,27.94 44.93,27.94 Z" fill="#C9C9C9"/>
  <path d="M44.19,29.61 C43.96,30.57 46.74,33.08 54.54,34.4 C63.16,35.86 73.22,34.43 76.97,33.76 C82.58,32.76 84.4,31.07 84.13,30.02 C83.78,28.68 82.58,29.56 81.67,29.93 C80.76,30.29 72.1,32.57 63.12,32.3 C54.14,32.03 50.86,31.16 49.17,30.34 C47.48,29.52 44.67,27.61 44.19,29.61 Z" fill="#F9FBFA"/>
  <path d="M58.81,97.22 C58.9,96.2 56.52,95.91 52.94,94.3 C49.36,92.69 40.77,88.66 38,78.55 C35.32,68.79 37.92,62.26 41.49,51.98 C43.01,47.6 44.08,40.97 44.17,37.48 C44.26,33.99 44.44,32.7 43.37,32.32 C42.3,31.94 42.56,33.37 42.56,37.21 C42.56,41.05 41.32,46.78 39.88,50.9 C36.3,61.1 32.67,68.89 36.28,80.14 C38.54,87.18 42.5,91.69 51.51,96 C55.62,97.97 58.68,98.69 58.81,97.22 Z" fill="#D5D5D5"/>
  <path d="M47.35,112.8 C46.1,113.02 45.8,114.8 48.84,116.69 C51.88,118.58 58.98,119.38 59.32,118.29 C59.66,117.2 55.03,116.69 51.42,114.91 C49.02,113.74 48.66,112.57 47.35,112.8 Z" fill="#FFFFFF"/>
  <path d="M68.39,118.75 C68.86,119.55 77.09,118.98 79.16,116.4 C81.22,113.82 79.68,111.65 77.27,111.82 C75.37,111.96 78.01,113.31 75.72,115.03 C73.43,116.74 67.58,117.37 68.39,118.75 Z" fill="#FFFFFF"/>
  <path d="M44.74,112.85 C44.11,112.9 42.74,115.48 43.94,117.89 C44.66,119.34 46.08,120.32 48.06,121.33 C50.99,122.82 55.63,124.11 63.02,124.05 C68.53,124.01 72.35,123.34 75.14,122.53 C80.69,120.93 82.02,117.85 82.3,116.97 C82.69,115.74 82.57,113.87 82.25,113.82 C81.9,113.77 81.45,115.5 80.75,116.4 C79.41,118.11 77.33,119.35 74.43,120.03 C71.5,120.72 68.68,121.35 62.71,121.21 C50.4,120.92 47.08,117.83 45.82,116.11 C44.41,114.19 45.48,112.79 44.74,112.85 Z" fill="#9F9F9F"/>
  <path d="M36.43,13.16 C33.87,15.15 30.39,19.65 31.37,27.69 C32.08,33.55 35.97,38.07 36.26,38.01 C36.55,37.95 60.02,18.06 59.96,17.66 C59.9,17.26 57.22,12.01 50.52,10.18 C43.82,8.35 38.49,11.55 36.43,13.16 Z" fill="#FF8E00"/>
  <path d="M48.65,23.9 L56.53,17.39 C56.53,17.39 53.72,13.84 49.43,12.87 L48.65,23.9 Z" fill="#FFA500"/>
  <path d="M34.12,26.35 C34.52,30.67 36.6,34.05 36.6,34.05 L44.88,27.08 L34.12,26.35 Z" fill="#FFA500"/>
  <path d="M46.47,23.32 L47.46,12.6 C45.02,12.22 42.05,12.58 39.41,14.5 L46.47,23.32 Z" fill="#FFA500"/>
  <path d="M37.77,16.28 C35.59,18.5 34.5,20.86 34.25,23.78 L44.87,25.09 L37.77,16.28 Z" fill="#FFA500"/>
  <path d="M30.17,7.75 C30.17,7.75 31.21,8.94 32.29,7.9 C33.19,7.04 32.38,6.1 32.38,6.1 C32.38,6.1 35.79,4.97 37.85,7.32 C39.91,9.67 39.85,13.1 37.33,14.88 C34.9,16.6 31.57,16.45 29.77,13.45 C28,10.45 30.17,7.75 30.17,7.75 Z" fill="#DC0D27"/>
</svg>
